img/icon-4.svg

<?xml version="1.0" encoding="utf-8"?>
<!-- Generator: Adobe Illustrator 15.0.0, SVG Export Plug-In . SVG Version: 6.00 Build 0)  -->
<!DOCTYPE svg PUBLIC "-//W3C//DTD SVG 1.1//EN" "http://www.w3.org/Graphics/SVG/1.1/DTD/svg11.dtd">
<svg version="1.1" id="Layer_2" xmlns="http://www.w3.org/2000/svg" xmlns:xlink="http://www.w3.org/1999/xlink" x="0px" y="0px"
	 width="59px" height="72px" viewBox="0 0 59 72" enable-background="new 0 0 59 72" xml:space="preserve">
<g>
	<path fill="#FFFFFF" d="M58.34,20.545c-0.566-0.753-1.454-1.195-2.396-1.195H17.274l-2.475-7.385H3.058c-1.657,0-3,1.343-3,3
		s1.343,3,3,3h7.424l13.5,40.285h25.159c1.657,0,3-1.343,3-3s-1.343-3-3-3H28.299l-1.726-5.149h23.12
		c1.338,0,2.514-0.886,2.884-2.172l6.25-21.75C59.087,22.273,58.906,21.298,58.34,20.545z M50.559,30.226h-4.81V25.35h6.211
		L50.559,30.226z M32.942,30.226V25.35h6.807v4.875H32.942z M39.749,36.226v4.875h-6.807v-4.875H39.749z M26.942,25.35v4.875h-6.023
		l-1.634-4.875H26.942z M22.929,36.226h4.013v4.875h-2.379L22.929,36.226z M45.749,41.101v-4.875h3.086l-1.401,4.875H45.749z"/>
	<circle fill="#FFFFFF" cx="27.406" cy="66.094" r="5.781"/>
	<circle fill="#FFFFFF" cx="44.844" cy="66.094" r="5.781"/>
	<path fill="#FFFFFF" d="M29.335,9.699l7.547,5.492c0.914,0.665,2.174,0.441,2.818-0.494c0.646-0.936,0.43-2.232-0.48-2.895
		l-2.373-1.726l9.436-5.09L50.911,17h4.347L49.214,1.309c-0.211-0.548-0.64-0.978-1.177-1.183c-0.536-0.205-1.135-0.166-1.643,0.109
		L33.146,7.382l-3.022-2.199c-0.872-0.634-2.071-0.462-2.742,0.39l-8.481,10.798c-0.169,0.181-0.305,0.395-0.405,0.628h5.106
		L29.335,9.699z"/>
</g>
</svg>

<svg xmlns="http://www.w3.org/2000/svg" width="59" height="72"><g fill="#FFF"><path d="M58.34 20.55a3 3 0 0 0-2.4-1.2H17.27l-2.47-7.38H3.06a3 3 0 1 0 0 6h7.42l13.5 40.28h25.16a3 3 0 1 0 0-6H28.3l-1.73-5.15H49.7a3 3 0 0 0 2.89-2.17l6.25-21.75a3 3 0 0 0-.49-2.63zm-7.78 9.68h-4.81v-4.88h6.21l-1.4 4.88zm-17.62 0v-4.88h6.8v4.88h-6.8zm6.8 6v4.87h-6.8v-4.87h6.8zm-12.8-10.88v4.88h-6.02l-1.64-4.88h7.66zm-4.01 10.88h4.01v4.87h-2.38l-1.63-4.87zm22.82 4.87v-4.87h3.09l-1.4 4.87h-1.7z"/><circle cx="27.41" cy="66.09" r="5.78"/><circle cx="44.84" cy="66.09" r="5.78"/><path d="M29.34 9.7l7.54 5.5c.92.66 2.18.43 2.82-.5.65-.94.43-2.24-.48-2.9l-2.37-1.72 9.43-5.1L50.91 17h4.35L49.2 1.3A2.05 2.05 0 0 0 48.04.14a1.97 1.97 0 0 0-1.65.1L33.15 7.38l-3.03-2.2a1.99 1.99 0 0 0-2.74.4l-8.48 10.8c-.17.17-.3.39-.4.62h5.1l5.73-7.3z"/></g></svg>
